assets/svg/free-postage.svg

<?xml version="1.0" encoding="UTF-8"?>
<svg width="1000px" height="1000px" viewBox="0 0 1000 1000" version="1.1" xmlns="http://www.w3.org/2000/svg" xmlns:xlink="http://www.w3.org/1999/xlink">
    <!-- Generator: sketchtool 52.4 (67378) - http://www.bohemiancoding.com/sketch -->
    <title>free-postage</title>
    <desc>Created with sketchtool.</desc>
    <g id="新版图标" stroke="none" stroke-width="1" fill="none" fill-rule="evenodd">
        <g id="free-postage" fill="#323233" fill-rule="nonzero">
            <g id="圆角-包邮">
                <path d="M418.991428,623.731825 L478.591096,623.731825 C488.435618,623.731825 495.557997,616.941503 495.557997,610.154732 L495.557997,547.528076 L418.991428,547.528076 L418.991428,623.731825 Z M368.991428,623.731825 L368.991428,547.528076 L301.113553,547.528076 L301.113553,610.154732 C301.113553,616.929013 308.24993,623.731825 318.080454,623.731825 L368.991428,623.731825 Z M418.991428,429.287381 L418.991428,497.528076 L495.557997,497.528076 L495.557997,442.890069 C495.557997,436.078639 488.437349,429.287381 478.591096,429.287381 L418.991428,429.287381 Z M368.991428,429.287381 L318.080454,429.287381 C308.248199,429.287381 301.113553,436.091135 301.113553,442.890069 L301.113553,497.528076 L368.991428,497.528076 L368.991428,429.287381 Z M368.991428,373.731825 L368.991428,314.008247 C368.991428,300.201128 380.184309,289.008247 393.991428,289.008247 C407.798547,289.008247 418.991428,300.201128 418.991428,314.008247 L418.991428,373.731825 L478.591096,373.731825 C518.551659,373.731825 551.113553,404.796901 551.113553,442.890069 L551.113553,610.154732 C551.113553,648.228595 518.545057,679.287381 478.591096,679.287381 L318.080454,679.287381 C278.146524,679.287381 245.557997,648.22209 245.557997,610.154732 L245.557997,442.890069 C245.557997,404.803411 278.139921,373.731825 318.080454,373.731825 L368.991428,373.731825 Z M500,888.888889 C714.777403,888.888889 888.888889,714.777403 888.888889,500 C888.888889,285.222597 714.777403,111.111111 500,111.111111 C285.222597,111.111111 111.111111,285.222597 111.111111,500 C111.111111,714.777403 285.222597,888.888889 500,888.888889 Z M500,944.444444 C254.540111,944.444444 55.5555556,745.459889 55.5555556,500 C55.5555556,254.540111 254.540111,55.5555556 500,55.5555556 C745.459889,55.5555556 944.444444,254.540111 944.444444,500 C944.444444,745.459889 745.459889,944.444444 500,944.444444 Z M690.14133,497.981825 L710.09133,497.981825 L710.09133,442.531825 C710.09133,431.935197 702.359305,423.731825 693.79133,423.731825 L645.21633,423.731825 C636.638661,423.731825 628.89133,431.944577 628.89133,442.531825 L628.89133,625.306825 C628.89133,639.113944 617.698449,650.306825 603.89133,650.306825 C590.084212,650.306825 578.89133,639.113944 578.89133,625.306825 L578.89133,442.531825 C578.89133,404.96147 608.351172,373.731825 645.21633,373.731825 L693.79133,373.731825 C730.656709,373.731825 760.09133,404.960791 760.09133,442.531825 L760.09133,522.981825 C760.09133,536.788944 748.898449,547.981825 735.09133,547.981825 L690.14133,547.981825 C676.334212,547.981825 665.14133,536.788944 665.14133,522.981825 C665.14133,509.174706 676.334212,497.981825 690.14133,497.981825 Z" id="Combined-Shape"></path>
            </g>
        </g>
    </g>
</svg>

<svg width="1000" height="1000" xmlns="http://www.w3.org/2000/svg"><path d="M418.991 623.732h59.6c9.845 0 16.967-6.79 16.967-13.577v-62.627h-76.567v76.204zm-50 0v-76.204h-67.877v62.627c0 6.774 7.136 13.577 16.966 13.577h50.911zm50-194.445v68.241h76.567V442.89c0-6.811-7.12-13.603-16.967-13.603h-59.6zm-50 0h-50.91c-9.833 0-16.967 6.804-16.967 13.603v54.638h67.877v-68.24zm0-55.555v-59.724c0-13.807 11.193-25 25-25 13.808 0 25 11.193 25 25v59.724h59.6c39.96 0 72.523 31.065 72.523 69.158v167.265c0 38.074-32.569 69.132-72.523 69.132h-160.51c-39.934 0-72.523-31.065-72.523-69.132V442.89c0-38.087 32.582-69.158 72.522-69.158h50.911zM500 888.889c214.777 0 388.889-174.112 388.889-388.889 0-214.777-174.112-388.889-388.889-388.889-214.777 0-388.889 174.112-388.889 388.889 0 214.777 174.112 388.889 388.889 388.889zm0 55.555C254.54 944.444 55.556 745.46 55.556 500S254.54 55.556 500 55.556 944.444 254.54 944.444 500 745.46 944.444 500 944.444zm190.141-446.462h19.95v-55.45c0-10.597-7.732-18.8-16.3-18.8h-48.575c-8.577 0-16.325 8.213-16.325 18.8v182.775c0 13.807-11.193 25-25 25s-25-11.193-25-25V442.532c0-37.57 29.46-68.8 66.325-68.8h48.575c36.866 0 66.3 31.229 66.3 68.8v80.45c0 13.807-11.193 25-25 25h-44.95c-13.807 0-25-11.193-25-25s11.193-25 25-25z" fill="#323233" fill-rule="nonzero"/></svg>
